icons/appcelerator-logo.svg

<?xml version="1.0" encoding="UTF-8" standalone="no"?>
<svg
   xmlns:dc="http://purl.org/dc/elements/1.1/"
   xmlns:cc="http://creativecommons.org/ns#"
   xmlns:rdf="http://www.w3.org/1999/02/22-rdf-syntax-ns#"
   xmlns:svg="http://www.w3.org/2000/svg"
   xmlns="http://www.w3.org/2000/svg"
   xmlns:sodipodi="http://sodipodi.sourceforge.net/DTD/sodipodi-0.dtd"
   xmlns:inkscape="http://www.inkscape.org/namespaces/inkscape"
   id="svg"
   version="1.1"
   width="450"
   height="450"
   sodipodi:docname="image2vector.svg"
   inkscape:version="0.92.2 (5c3e80d, 2017-08-06)">
  <metadata
     id="metadata9">
    <rdf:RDF>
      <cc:Work
         rdf:about="">
        <dc:format>image/svg+xml</dc:format>
        <dc:type
           rdf:resource="http://purl.org/dc/dcmitype/StillImage" />
        <dc:title></dc:title>
      </cc:Work>
    </rdf:RDF>
  </metadata>
  <defs
     id="defs7" />
  <sodipodi:namedview
     pagecolor="#ffffff"
     bordercolor="#666666"
     borderopacity="1"
     objecttolerance="10"
     gridtolerance="10"
     guidetolerance="10"
     inkscape:pageopacity="0"
     inkscape:pageshadow="2"
     inkscape:window-width="1920"
     inkscape:window-height="1027"
     id="namedview5"
     showgrid="false"
     inkscape:zoom="0.19666667"
     inkscape:cx="600"
     inkscape:cy="600"
     inkscape:window-x="1912"
     inkscape:window-y="-8"
     inkscape:window-maximized="1"
     inkscape:current-layer="svg" />
  <g
     id="svgg"
     transform="translate(25.423729,27.966102)">
    <path
       id="path0"
       d="m 198,25.699 c -2.328,0.455 -5.345,2.107 -7.059,3.867 C 188.868,31.694 3.299,352.891 2.058,356.5 c -2.374,6.902 1.301,14.261 8.616,17.253 l 1.826,0.747 186.667,0.091 c 129.109,0.062 187.373,-0.018 188.957,-0.26 8.392,-1.282 13.929,-9.909 11.387,-17.741 C 398.571,353.695 212.469,31.56 210.635,29.654 207.465,26.359 202.531,24.814 198,25.699 m 7.667,130.296 c 30.636,1.489 46.976,12.585 51.548,35.005 0.529,2.596 0.587,6.937 0.691,51.921 l 0.113,49.087 0.741,-0.173 c 0.407,-0.094 4.415,-0.85 8.907,-1.678 4.491,-0.828 8.337,-1.566 8.546,-1.64 0.243,-0.086 -0.447,-2.312 -1.927,-6.213 -1.268,-3.343 -2.264,-6.18 -2.212,-6.303 0.105,-0.255 43.593,18.726 43.593,19.027 0,0.108 -7.153,6.708 -15.895,14.667 -8.742,7.959 -16.702,15.209 -17.69,16.11 l -1.795,1.638 0.241,-6.927 c 0.232,-6.708 0.22,-6.921 -0.394,-6.744 -0.349,0.101 -12.377,2.248 -26.73,4.771 l -26.095,4.588 -1.203,-1.203 -1.202,-1.202 0.298,-9.197 0.298,-9.197 -0.861,0.001 c -0.675,0 -1.142,0.414 -2.162,1.917 -10.074,14.851 -31.668,24.011 -52.137,22.116 -27.603,-2.554 -40.664,-19.001 -39.917,-50.264 0.675,-28.31 16.21,-45.022 46.328,-49.839 4.092,-0.655 6.012,-0.717 26.166,-0.843 l 21.75,-0.137 v -9.922 c 0,-11.153 -0.263,-13.011 -2.478,-17.53 -6.521,-13.301 -22.942,-15.828 -69.356,-10.677 l -7.333,0.814 -1.25,-1.218 -1.25,-1.219 v -13.084 -13.083 l 1.083,-0.183 c 6.267,-1.053 34.683,-3.019 47.584,-3.291 2.108,-0.044 4.658,-0.11 5.666,-0.146 1.009,-0.036 4.759,0.077 8.334,0.251 m -15.5,95.9 c -18.315,1.59 -26.201,8.677 -26.269,23.605 -0.061,13.577 6.549,20.658 20.728,22.199 14.94,1.625 28.755,-3.768 38.214,-14.917 l 1.827,-2.153 v -14.481 -14.481 l -16.584,0.056 c -9.12,0.031 -17.183,0.108 -17.916,0.172"
       inkscape:connector-curvature="0"
       style="fill:#000000;fill-rule:evenodd;stroke:none" />
  </g>
</svg>

<?xml version="1.0" encoding="UTF-8" standalone="no"?>
<!DOCTYPE svg PUBLIC "-//W3C//DTD SVG 1.1//EN" "http://www.w3.org/Graphics/SVG/1.1/DTD/svg11.dtd">
<svg width="100%" height="100%" viewBox="0 0 450 450" version="1.1" xmlns="http://www.w3.org/2000/svg" xmlns:xlink="http://www.w3.org/1999/xlink" xml:space="preserve" xmlns:serif="http://www.serif.com/" style="fill-rule:evenodd;clip-rule:evenodd;stroke-linejoin:round;stroke-miterlimit:2;">
    <g id="svgg" transform="matrix(1,0,0,1,25.4237,27.9661)">
        <path id="path0" d="M198,25.699C195.672,26.154 192.655,27.806 190.941,29.566C188.868,31.694 3.299,352.891 2.058,356.5C-0.316,363.402 3.359,370.761 10.674,373.753C10.674,373.753 386.54,374.573 388.124,374.331C396.516,373.049 402.053,364.422 399.511,356.59C398.571,353.695 212.469,31.56 210.635,29.654C207.465,26.359 202.531,24.814 198,25.699M205.667,155.995C236.303,157.484 252.643,168.58 257.215,191C257.744,193.596 258.019,292.008 258.019,292.008C258.019,292.008 276.004,288.591 276.213,288.517C276.456,288.431 272.022,276.124 272.074,276.001C272.179,275.746 315.667,294.727 315.667,295.028C315.667,295.136 280.287,327.443 280.287,327.443C280.287,327.443 280.748,313.595 280.134,313.772C279.785,313.873 227.309,323.131 227.309,323.131L224.904,320.726L225.5,302.332C225.5,302.332 190.809,328.261 170.34,326.366C142.737,323.812 129.676,307.365 130.423,276.102C131.098,247.792 146.633,231.08 176.751,226.263C180.843,225.608 224.667,225.283 224.667,225.283L224.667,215.361C224.667,204.208 224.404,202.35 222.189,197.831C215.668,184.53 144.25,186.75 144.25,186.75L143,185.531L143,159.364L144.083,159.181C150.35,158.128 202.092,155.821 205.667,155.995M190.167,251.895C171.852,253.485 163.966,260.572 163.898,275.5C163.837,289.077 170.447,296.158 184.626,297.699C199.566,299.324 224.667,280.629 224.667,280.629L224.667,251.667C224.667,251.667 190.9,251.831 190.167,251.895"/>
    </g>
</svg>
